X:114
T:Five Mile Chase, The
R:reel
Z:id:hn-reel-114
M:C|
K:G
G2BG dGBG | FADA FADA | G2BG dG (3Bcd |1 egfa gedB :|2 egfa ~g3f ||
gd (3Bcd ed (3Bcd | g2bg agef | gd (3Bcd ed (3Bcd | egfa ~g3f |
gabg efge | dedc Bcd2 | ~e3f edBd | egfa gedB ||
P:variations
|: ~G3B dGBG | FADF ADFD | G2BG dG (3Bcd |1 egfa gedB :|2 egfa ~g3f ||
gd (3Bcd ed (3Bcd | gdbg agef | gd (3Bcd ed (3Bcd | egaf ~g3d |
g2bg efge | dged BGBd | ed (3efg edBd | egfa gedB ||

